app/dog-project/images/decor/dog-bg3.svg

<svg width="63" height="54" viewBox="0 0 63 54" fill="none" xmlns="http://www.w3.org/2000/svg">
<path opacity="0.1" d="M50.6165 11.6737C46.4205 4.36442 39.2743 0 31.4999 0C23.7255 0 16.5793 4.36442 12.384 11.6737L2.27334 29.2863C0.595807 32.2081 -0.178218 35.5843 0.0344966 39.047C0.247211 42.5106 1.42746 45.7359 3.44718 48.3765C5.46832 51.0147 8.139 52.8179 11.1704 53.5917C14.2017 54.3654 17.3092 54.035 20.1563 52.6376L20.347 52.5431C27.511 49.097 35.6973 49.1288 42.8428 52.6376C44.6861 53.5424 46.6389 54 48.6096 54C49.6809 54 50.7588 53.8642 51.8266 53.5925C54.858 52.8195 57.5286 51.0162 59.5505 48.3773C61.5709 45.7391 62.7519 42.513 62.9653 39.0486C63.1787 35.5843 62.4047 32.2089 60.7272 29.2855L50.6165 11.6737Z" fill="#FDBE24"/>
</svg>

<svg width="63" height="54" fill="none" xmlns="http://www.w3.org/2000/svg"><path opacity=".1" d="M50.617 11.674C46.42 4.364 39.273 0 31.5 0c-7.774 0-14.92 4.364-19.116 11.674L2.274 29.286C.595 32.208-.179 35.584.033 39.047c.213 3.464 1.393 6.689 3.413 9.33 2.021 2.638 4.692 4.44 7.723 5.215 3.032.773 6.14.443 8.986-.954l.191-.095c7.164-3.446 15.35-3.414 22.496.095C44.686 53.542 46.639 54 48.61 54c1.07 0 2.149-.136 3.217-.407 3.031-.774 5.702-2.577 7.724-5.216 2.02-2.638 3.2-5.864 3.414-9.328.214-3.465-.56-6.84-2.238-9.764l-10.11-17.611z" fill="#FDBE24"/></svg>
